!!!!SEGMENT: pl-sa--481-a-viii-121--032_anonim--valc.krn
!!!cenid: 18xx:403
!!!COM: Anonim
!!!COM-rismid: pe30004985
!!!CDT:
!!!CNT:
!!!OTL: Valc
!!!PDT:
!!!AGN: Secular; Waltz
!!!SMS-siglum: PL-SA
!!!SMS-shelfmark: 481/A VIII 121
!!!SMS-shelfwork: 032 W
!!!SMS-variant:
!!!SMS-altvar:
!!!NIFC-rismid: 1001070700
!!!URL-scan: http://bc.bdsandomierz.pl/dlibra/publication/1212/edition/1171/content
!!!ONB-nifc: Str. 22, s. 4-5
**kern	**kern
*part1	*part1
*staff2	*staff1
*I"Piano	*
*I'P-no	*
*clefG2	*clefG2
*k[b-]	*k[b-]
*F:	*F:
*M3/8	*M3/8
*>[A,B,B,C,D,D,E,A,B,B,C,D,D,E,F,F,G,F,F,G,A,B,B,C,D,D,E]	*>[A,B,B,C,D,D,E,A,B,B,C,D,D,E,F,F,G,F,F,G,A,B,B,C,D,D,E]
=1	=1
*>A	*>A
*	*Xtuplet
!	!LO:TX:a:t=Valc
8c/L	24ff\LL
.	24ff\
.	24ff\JJ
8a 8f/	4ff\
8aJ 8f/	.
=2	=2
*rep	*
8c/L	24ff\LL
.	24ff\
.	24ff\JJ
8a 8f/	4ff\
8aJ 8f/	.
*Xrep	*
=3	=3
*rep	*
8c/L	16ff\LL
.	16aa\
8a 8f/	16ccc\
.	16aa\JJ
!	!LO:N:vis=4
8aJ 8f/	8ff\
*Xrep	*
=4	=4
*rep	*
8c/L	4.cc\
8a 8f/	.
8aJ 8f/	.
*Xrep	*
=5!|:	=5!|:
*>B	*>B
*rep	*
8c/L	16aa\LL
.	16bb-\
8a 8f/	16ccc\
.	16ddd\JJ
8aJ 8f/	8ccc\
*Xrep	*
=6:|!	=6:|!
*>C	*>C
8c/L	16ccc\LL
.	16bb-\J
8b- 8g/	8gg\
8b-J 8g/	8gg\J
=7	=7
8c/L	8aa\
8a 8f/	4ff\
8aJ 8f/	.
=8!|:	=8!|:
*>D	*>D
*rep	*
8c/L	16aa\LL
.	16bb-\
8a 8f/.	16ccc\
.	16ddd\JJ
8aJ 8f/	8ccc\
*Xrep	*
=9:|!	=9:|!
*>E	*>E
8c/L	16ccc\LL
.	16bb-\J
8b- 8g/	8gg\
8b-J 8g/	8gg\J
=10	=10
8c/L	8aa\
8a 8f/	4ff\
8aJ 8f/	.
=11:|!|:	=11:|!|:
*>F	*>F
8c/L	4bb-\
8b- 8g/	.
8b-J 8g/	8gg\
=12	=12
8c/L	8ff\L
8a 8f/	16aa\L
.	16ff\J
8aJ 8f/	8cc\J
=13:|!	=13:|!
*>G	*>G
*rep	*
8c/L	16cc\LL
.	16ff\
8a 8f/	16aa\
.	16ff\JJ
8aJ 8f/	8cc\
*Xrep	*
!LO:LB:g=original	!LO:LB:g=original
=14	=14
*rep	*
8c/L	16cc\LL
.	16ff\
8a 8f/	16aa\
.	16ff\JJ
8aJ 8f/	8cc\
*Xrep	*
=15	=15
8c/L	4bb-\
8b- 8g/	.
8b-J 8g/	8gg\
=16	=16
8c/L	4aa\
8a 8f/	.
!	!LO:TX:b:t=Da Capo Valc
8aJ 8f/	8ff\
=:|!	=:|!
*-	*-
!!!system-decoration: s1,s2
!!!ENC: Marta Lawrence
!!!END: 2020-11-22
!!!ENC: Anastazja Marusiak
!!!END: 2020-06-14
